www/images/connect.svg

<svg fill="none" height="75" viewBox="0 0 75 75" width="75" xmlns="http://www.w3.org/2000/svg"><g fill="#fff"><path d="m57.719 55.3669c5.197-4.0382 8.5409-10.3484 8.5409-17.4395 0-12.1904-9.8822-22.0727-22.0726-22.0727-8.1408 0-15.2522 4.4071-19.0786 10.9657l-2.4098-1.8186c4.3878-7.2791 12.3696-12.1471 21.4884-12.1471 13.8472 0 25.0726 11.2254 25.0726 25.0727 0 13.8472-11.2254 25.0726-25.0726 25.0726-9.0838 0-17.0394-4.8308-21.4378-12.0635l2.4087-1.8177c1.4127 2.3969 3.2654 4.5035 5.447 6.2089l.6504-6.1102c.5786-4.9684 4.6059-8.7315 9.4924-8.7315h6.6166c4.7462 0 8.9139 3.7631 9.4924 8.8784z"/><path d="m43.6727 38.4392c5.0882 0 9.2133-4.1205 9.2133-9.2104 0-5.084-4.1251-9.2103-9.2133-9.2103-5.0824 0-9.2074 4.1263-9.2074 9.2103 0 5.0899 4.125 9.2104 9.2074 9.2104z"/><path d="m18.4062 28.2324 12.0162 8.8112c.7701.4417.7701 1.4686 0 1.9103l-12.0162 8.8112c-.7702.5909-2.0037 0-2.0037-1.0268v-4.6982h-10.169c-.61976 0-1.2335-.4417-1.2335-1.1759v-5.8742c0-.5908.46331-1.176 1.2335-1.176h10.169v-4.5548c0-1.0268 1.2335-1.6119 2.0037-1.0268z"/></g></svg>

<svg width="75" height="75" viewBox="0 0 75 75" fill="none" xmlns="http://www.w3.org/2000/svg">
<path d="M57.719 55.3669C62.916 51.3287 66.2599 45.0185 66.2599 37.9274C66.2599 25.737 56.3777 15.8547 44.1873 15.8547C36.0465 15.8547 28.9351 20.2618 25.1087 26.8204L22.6989 25.0018C27.0867 17.7227 35.0685 12.8547 44.1873 12.8547C58.0345 12.8547 69.2599 24.0801 69.2599 37.9274C69.2599 51.7746 58.0345 63 44.1873 63C35.1035 63 27.1479 58.1692 22.7495 50.9365L25.1582 49.1188C26.5709 51.5157 28.4236 53.6223 30.6052 55.3277L31.2556 49.2175C31.8342 44.2491 35.8615 40.486 40.748 40.486H47.3646C52.1108 40.486 56.2785 44.2491 56.857 49.3644L57.719 55.3669Z" fill="white"/>
<path d="M43.6727 38.4392C48.7609 38.4392 52.886 34.3187 52.886 29.2288C52.886 24.1448 48.7609 20.0185 43.6727 20.0185C38.5903 20.0185 34.4653 24.1448 34.4653 29.2288C34.4653 34.3187 38.5903 38.4392 43.6727 38.4392Z" fill="white"/>
<path d="M18.4062 28.2324L30.4224 37.0436C31.1925 37.4853 31.1925 38.5122 30.4224 38.9539L18.4062 47.7651C17.636 48.356 16.4025 47.7651 16.4025 46.7383V42.0401H6.2335C5.61374 42.0401 5 41.5984 5 40.8642V34.99C5 34.3992 5.46331 33.814 6.2335 33.814H16.4025V29.2592C16.4025 28.2324 17.636 27.6473 18.4062 28.2324Z" fill="white"/>
</svg>
